packages/nextjs/public/season-2/invader-6.svg

<svg width="96" height="96" viewBox="0 0 96 96" fill="none" xmlns="http://www.w3.org/2000/svg">
<path fill-rule="evenodd" clip-rule="evenodd" d="M59.8587 11.8958L59.9296 23.9676L71.8599 23.9744L71.8122 36.008L84.0207 35.9985L83.9238 23.9512L95.8159 24.0099C96.1579 47.7759 95.9158 72.1218 95.9305 95.9359C87.9361 96.0351 79.7604 95.9382 71.7494 95.9318L71.8449 83.9978L83.9348 84.036L83.8338 59.9238L71.8503 59.9661L71.8394 71.9778L59.8805 71.926L59.8328 84.0169L35.904 83.9691L35.9027 71.8973L23.8769 71.9451L23.791 59.9306L11.8798 59.9374C11.8593 67.9853 11.8891 76.0331 11.9685 84.081L23.8073 84.1138L23.8333 95.8717L0 96L0.0204612 23.9267L11.772 23.9867L12.0271 36.0339L23.9247 36.0844L23.7214 47.7851L35.9886 47.9065L35.9313 36.0844L23.836 36.0107L23.8605 23.9512L35.9395 24.0126C35.9472 19.931 35.922 15.8491 35.8645 11.7675L59.8587 11.8958ZM59.8982 36.0203L59.9446 47.8874L71.8285 47.9229L71.8122 36.008L59.8982 36.0203Z" fill="#16A24B"/>
<path d="M71.7399 0.00955156L71.6785 11.8862L60.0006 11.7962C59.8448 7.9452 59.9564 3.87337 59.9951 0L71.7399 0.00955156Z" fill="#16A24B"/>
<path d="M35.8686 0.150096L35.8645 11.7675C31.8892 11.7739 27.8472 11.825 23.8796 11.7866L23.9178 0.0477578L35.8686 0.150096Z" fill="#16A24B"/>
</svg>

<svg xmlns="http://www.w3.org/2000/svg" fill="none" viewBox="0 0 96 96"><g fill="#16a24b" clip-path="url(#a)"><path fill-rule="evenodd" d="m59.859 11.896.07 12.072 11.93.006-.047 12.034 12.209-.01-.097-12.047 11.892.059c.342 23.766.1 48.112.114 71.926-7.994.1-16.17.002-24.18-.004l.095-11.934 12.09.038-.101-24.112-11.984.042-.01 12.012-11.96-.052-.047 12.09-23.929-.047-.001-12.072-12.026.048-.086-12.014-11.911.006q-.03 12.072.088 24.144l11.84.033.025 11.758L0 96l.02-72.073 11.752.06.255 12.047 11.898.05-.204 11.701 12.268.122-.058-11.823-12.095-.073.024-12.06 12.08.062q.01-6.123-.075-12.246zm.04 24.124.046 11.867 11.884.036-.017-11.915z" clip-rule="evenodd"/><path d="m71.74.01-.061 11.876L60 11.796c-.156-3.85-.045-7.923-.006-11.796zM35.869.15l-.005 11.618c-3.975.006-8.017.057-11.984.019l.038-11.74z"/></g><defs><clipPath id="a"><path fill="#fff" d="M0 0h96v96H0z"/></clipPath></defs></svg>
